astro/public/img/icons/ciam.svg

<?xml version="1.0" encoding="UTF-8"?>
<svg width="70px" height="70px" viewBox="0 0 70 70" version="1.1" xmlns="http://www.w3.org/2000/svg" xmlns:xlink="http://www.w3.org/1999/xlink">
    <title>CIAM</title>
    <defs>
        <linearGradient x1="0%" y1="1.9045858%" x2="100%" y2="98.0954142%" id="linearGradient-1">
            <stop stop-color="#A4AEBE" offset="0%"></stop>
            <stop stop-color="#2D53F5" offset="100%"></stop>
        </linearGradient>
    </defs>
    <g id="CIAM" stroke="none" stroke-width="1" fill="none" fill-rule="evenodd">
        <path d="M34.9996758,23.2093045 C44.4335227,23.2093045 52.10688,30.9301211 52.10688,40.4207453 C52.10688,41.4230714 51.2749187,42.2365535 50.2498235,42.2365535 C49.2247283,42.2365535 48.392767,41.4230714 48.392767,40.4207453 C48.392767,32.9323522 42.3858084,26.840921 34.9996758,26.840921 C27.6135433,26.840921 21.6065846,32.9323522 21.6065846,40.4207453 C21.6065846,47.6501522 29.3921597,55.8244139 30.356654,56.8080638 L30.4536016,56.9058628 C31.1766156,57.6176596 31.1716634,58.7676715 30.4412212,59.4746262 C30.0797142,59.8256824 29.6067839,60 29.1338535,60 C28.655971,60 28.1780884,59.8208403 27.8141054,59.4625208 L27.7933871,59.4420478 L27.7245805,59.3732649 C26.6716277,58.3137605 17.8924717,49.2041919 17.8924717,40.4207453 C17.8924717,30.9301211 25.565829,23.2093045 34.9996758,23.2093045 Z M36.6066487,16.1567054 C49.2445369,16.9822929 59.146362,27.9788274 59.146362,41.190648 L59.146362,41.6046523 C59.146362,46.524282 55.1549286,50.5263233 50.2498235,50.5263233 C45.3447184,50.5263233 41.3557611,46.524282 41.3557611,41.6046523 L41.3557611,40.4207453 C41.3557611,38.63399 40.6575078,36.9731308 39.3897573,35.7383812 C38.2012412,34.5811061 36.6437898,33.9467838 35.0021519,33.9467838 L34.9674869,33.9467838 C32.8752032,33.9564681 31.4663164,35.0193211 30.6541637,35.9078566 C29.2056597,37.4888203 28.4875978,39.7888441 28.7327293,42.0549727 C29.5523102,49.6038927 38.4240879,56.3708047 40.8654982,56.3708047 C41.8905933,56.3708047 42.7225546,57.1842867 42.7225546,58.1866129 C42.7225546,59.188939 41.8905933,60 40.8654982,60 C36.3986584,60 26.0437115,51.6908616 25.040901,42.437503 C24.6868223,39.1666271 25.7515347,35.8206978 27.8859115,33.486779 C29.742968,31.457916 32.2512323,30.3321149 34.9476782,30.3175884 L34.9996758,30.3175884 C37.6292678,30.3175884 40.1152474,31.3271778 42.0069689,33.1647757 C43.982877,35.0846902 45.069874,37.6631379 45.069874,40.4231664 L45.069874,41.6070733 C45.069874,44.5244719 47.3924326,46.8971279 50.2498235,46.8971279 C53.1072144,46.8971279 55.4322491,44.5244719 55.4322491,41.6070733 L55.4322491,41.1930691 C55.4322491,29.8866366 47.0556864,20.4807501 36.3615172,19.7834797 C30.7878718,19.4130548 25.4370731,21.2966532 21.3094556,25.0686921 C17.0258454,28.9859957 14.5695787,34.5835272 14.5695787,40.4231664 C14.5695787,45.2265844 16.2335013,49.9065274 19.2543131,53.6010919 C19.8931405,54.385521 19.7643846,55.5258486 18.9621362,56.1529077 C18.1623639,56.7799668 16.9936564,56.6540707 16.3523529,55.8672205 C12.8090892,51.5310705 10.8554658,46.0449086 10.8554658,40.4207453 C10.8554658,33.57878 13.7425695,27.0152385 18.7714784,22.4151911 C23.656775,17.9458818 29.9930516,15.7209115 36.6066487,16.1567054 Z M34.8535874,37.4210301 C35.8786826,37.4210301 36.7106438,38.2345122 36.7106438,39.2368384 C36.7106438,46.4225967 42.8884517,52.8166627 47.7564157,52.8166627 C48.7815109,52.8166627 49.6134721,53.6301448 49.6134721,54.6324709 C49.6134721,55.6347971 48.7815109,56.4482791 47.7564157,56.4482791 C41.1106296,56.4482791 32.9965309,48.5071446 32.9965309,39.2368384 C32.9965309,38.2345122 33.8284922,37.4210301 34.8535874,37.4210301 Z M34.9996758,9 C45.235771,9 54.837991,14.0818419 60.6840047,22.5943508 C61.2559781,23.4272015 61.0306553,24.5554237 60.1764093,25.1146926 C59.8594717,25.3204842 59.5004407,25.4197484 59.1414098,25.4197484 C58.5446757,25.4197484 57.9553698,25.1389034 57.5988149,24.6159506 C52.4436262,17.11061 43.9952573,12.6291953 34.9996758,12.6291953 C26.0040943,12.6291953 17.5557255,17.11061 12.4005367,24.6159506 C11.8285633,25.4512224 10.6722362,25.6715405 9.82294236,25.1122715 C8.97117246,24.5530026 8.74337354,23.4247804 9.31534693,22.5919297 C15.1613607,14.0818419 24.7635806,9 34.9996758,9 Z" id="Combined-Shape" fill="url(#linearGradient-1)" fill-rule="nonzero"></path>
    </g>
</svg>

<svg xmlns="http://www.w3.org/2000/svg" width="70" height="70"><defs><linearGradient id="a" x1="0%" x2="100%" y1="1.905%" y2="98.095%"><stop offset="0%" stop-color="#A4AEBE"/><stop offset="100%" stop-color="#2D53F5"/></linearGradient></defs><path fill="url(#a)" d="M35 23.21c9.434 0 17.107 7.72 17.107 17.21 0 1.003-.832 1.817-1.857 1.817s-1.857-.814-1.857-1.816c0-7.489-6.007-13.58-13.393-13.58-7.386 0-13.393 6.091-13.393 13.58 0 7.23 7.785 15.403 8.75 16.387l.097.098a1.786 1.786 0 0 1-.013 2.569 1.87 1.87 0 0 1-1.307.525c-.478 0-.956-.18-1.32-.537l-.02-.021-.07-.069c-1.052-1.06-9.832-10.169-9.832-18.952 0-9.49 7.674-17.212 17.108-17.212Zm1.607-7.053c12.638.825 22.54 11.822 22.54 25.034v.414c0 4.92-3.992 8.921-8.897 8.921s-8.894-4.002-8.894-8.921V40.42a6.477 6.477 0 0 0-1.966-4.683 6.258 6.258 0 0 0-4.388-1.791h-.035c-2.092.01-3.5 1.072-4.313 1.96-1.448 1.582-2.166 3.882-1.921 6.148.82 7.549 9.691 14.316 12.132 14.316 1.026 0 1.858.813 1.858 1.816 0 1.002-.832 1.813-1.858 1.813-4.466 0-14.821-8.31-15.824-17.562-.354-3.271.71-6.617 2.845-8.951 1.857-2.03 4.365-3.155 7.062-3.17H35a10 10 0 0 1 7.007 2.848 10.038 10.038 0 0 1 3.063 7.258v1.184c0 2.917 2.322 5.29 5.18 5.29 2.857 0 5.182-2.373 5.182-5.29v-.414c0-11.306-8.376-20.712-19.07-21.41-5.574-.37-10.925 1.514-15.053 5.286-4.283 3.917-6.74 9.515-6.74 15.354A20.87 20.87 0 0 0 19.254 53.6c.64.785.51 1.925-.292 2.552-.8.627-1.968.501-2.61-.286a24.474 24.474 0 0 1-5.497-15.446c0-6.842 2.888-13.406 7.916-18.006 4.886-4.47 11.222-6.694 17.836-6.258ZM34.854 37.42c1.025 0 1.857.814 1.857 1.816 0 7.186 6.177 13.58 11.045 13.58 1.026 0 1.857.813 1.857 1.815 0 1.003-.831 1.816-1.857 1.816-6.645 0-14.76-7.94-14.76-17.211 0-1.002.832-1.816 1.858-1.816ZM35 9c10.236 0 19.838 5.082 25.684 13.594a1.79 1.79 0 0 1-.508 2.52 1.893 1.893 0 0 1-1.035.306 1.862 1.862 0 0 1-1.542-.804c-5.155-7.505-13.604-11.987-22.6-11.987-8.995 0-17.443 4.482-22.598 11.987a1.882 1.882 0 0 1-2.578.496 1.792 1.792 0 0 1-.508-2.52C15.161 14.082 24.764 9 35 9Z"/></svg>
